assets/image/image-fill.svg

<svg id="Raw" xmlns="http://www.w3.org/2000/svg" viewBox="0 0 256 256">
  <rect width="256" height="256" fill="none"/>
  <path d="M168.00049,100.00012v.00342a12.00171,12.00171,0,1,1,0-.00342Zm63.999-44V199.99963a16.01833,16.01833,0,0,1-16,16h-176a16.01833,16.01833,0,0,1-16-16V56.00012a16.01834,16.01834,0,0,1,16-16h176A16.01833,16.01833,0,0,1,231.99951,56.00012Zm-15.9917,108.6933-.0083-108.6933h-176v92.68549L76.686,112.00012a16.019,16.019,0,0,1,22.62792,0l44.68653,44.68652L164.686,136.00012a16.019,16.019,0,0,1,22.62792,0Z"/>
</svg>

<svg id="Raw" xmlns="http://www.w3.org/2000/svg" viewBox="0 0 256 256">
  <rect width="256" height="256" fill="none"/>
  <path d="M168.001,100.00017v.00341a12.00175,12.00175,0,1,1,0-.00341ZM232,56V200a16.01835,16.01835,0,0,1-16,16H40a16.01835,16.01835,0,0,1-16-16V56A16.01835,16.01835,0,0,1,40,40H216A16.01835,16.01835,0,0,1,232,56Zm-15.9917,108.6936L216,56H40v92.68575L76.68652,112.0002a16.01892,16.01892,0,0,1,22.62793,0L144.001,156.68685l20.68554-20.68658a16.01891,16.01891,0,0,1,22.62793,0Z"/>
</svg>
